X: 5
T:Gilsland Hornpipe,aka. WI.005
M:C|
Q:180
C:untitled in MS
S:Wm Irwin, 1838 MS, AGG's Transcription
R:Hornipe
O:England
A:Lake District
Z:vmp.Chris Partington.2005
K:D
de|fefa gfef|d2B2 B2dB|AFAB ABde|f2e2e2de|!
fefa gfef|d2B2 B2dB|AFAB ABde|f2d2 d2:|!
de|f2f>f f2ef|g2g>g g2fg|a2a2 bagf|f2e2e2de|!
f2f>f f2ef|g2g>g g2fg|a2a2 bagf|f2d2 d2:|]
